public/icons/tokens/stkgho.svg

<svg width="200" height="200" viewBox="0 0 200 200" fill="none" xmlns="http://www.w3.org/2000/svg">
<rect width="200" height="200" rx="100" fill="#28D358" style="fill:#28D358;fill:color(display-p3 0.1585 0.8276 0.3459);fill-opacity:1;"/>
<path d="M100 183C145.84 183 183 145.84 183 100C183 54.1604 145.84 17 100 17C54.1604 17 17 54.1604 17 100C17 145.84 54.1604 183 100 183Z" fill="white" style="fill:white;fill-opacity:1;"/>
<path d="M69.4783 89.1657C69.4783 96.6302 75.5263 102.678 82.9907 102.678C90.4552 102.678 96.5031 96.6302 96.5031 89.1657C96.5031 81.7013 90.4552 75.6533 82.9907 75.6533C75.5263 75.6533 69.4783 81.7013 69.4783 89.1657Z" fill="#28D358" style="fill:#28D358;fill:color(display-p3 0.1585 0.8276 0.3459);fill-opacity:1;"/>
<path d="M103.536 89.1657C103.536 96.6302 109.584 102.678 117.048 102.678C124.513 102.678 130.561 96.6302 130.561 89.1657C130.561 81.7013 124.513 75.6533 117.048 75.6533C109.584 75.6533 103.536 81.7013 103.536 89.1657Z" fill="#28D358" style="fill:#28D358;fill:color(display-p3 0.1585 0.8276 0.3459);fill-opacity:1;"/>
<path d="M164.037 152.81V106.756H146.663C143.149 129.985 123.987 146.906 99.9999 146.906C73.4953 146.906 52.3192 126.25 52.3192 99.2419C52.3192 72.2337 73.4953 51.1904 100.005 51.1904C123.113 51.1904 142.158 67.1873 146.674 89.1768H164.048C159.295 57.9134 132.016 33.9707 99.9999 33.9707C64.6253 33.9707 35.9516 63.1978 35.9516 99.2364C35.9516 135.275 64.6253 164.502 99.9999 164.502C122.261 164.502 137.782 154.193 147.304 137.959C147.531 138.025 147.764 138.075 147.979 138.141V167.734C153.972 163.484 159.373 158.46 164.037 152.805V152.81Z" fill="#28D358" style="fill:#28D358;fill:color(display-p3 0.1585 0.8276 0.3459);fill-opacity:1;"/>
</svg>

<svg width="200" height="200" viewBox="0 0 200 200" fill="none" xmlns="http://www.w3.org/2000/svg"><rect width="200" height="200" rx="100" fill="#28D358" style="fill:color(display-p3 .1585 .8276 .3459);fill-opacity:1"/><path d="M100 183c45.84 0 83-37.16 83-83s-37.16-83-83-83-83 37.16-83 83 37.16 83 83 83Z" fill="#fff" style="fill:#fff;fill-opacity:1"/><path d="M69.478 89.166c0 7.464 6.048 13.512 13.513 13.512 7.464 0 13.512-6.048 13.512-13.512 0-7.465-6.048-13.513-13.512-13.513-7.465 0-13.513 6.048-13.513 13.513Zm34.058 0c0 7.464 6.048 13.512 13.512 13.512 7.465 0 13.513-6.048 13.513-13.512 0-7.465-6.048-13.513-13.513-13.513-7.464 0-13.512 6.048-13.512 13.513Z" fill="#28D358" style="fill:color(display-p3 .1585 .8276 .3459);fill-opacity:1"/><path d="M164.037 152.81v-46.054h-17.374c-3.514 23.229-22.676 40.15-46.663 40.15-26.505 0-47.68-20.656-47.68-47.664 0-27.008 21.175-48.052 47.685-48.052 23.108 0 42.153 15.997 46.669 37.987h17.374C159.295 57.913 132.016 33.97 100 33.97c-35.375 0-64.048 29.227-64.048 65.265 0 36.039 28.673 65.266 64.048 65.266 22.261 0 37.782-10.309 47.304-26.543.227.066.46.116.675.182v29.593a83.223 83.223 0 0 0 16.058-14.929v.005Z" fill="#28D358" style="fill:color(display-p3 .1585 .8276 .3459);fill-opacity:1"/></svg>
